less/specials/images/profile/placeholder-thank.svg

<?xml version="1.0" encoding="utf-8"?><svg xmlns="http://www.w3.org/2000/svg" width="40" height="40" viewBox="0 0 40 40"><path fill="#ABABAB" d="M6.777 7.25v19.807l-5.08 5.692h33.384c3.072 0 3.216-3.055 3.221-3.208v-22.291h-31.525zm19.843 4.87c1.012 0 1.832.819 1.832 1.833 0 1.012-.82 1.831-1.832 1.831-1.013 0-1.833-.819-1.833-1.831 0-1.014.82-1.833 1.833-1.833zm-7.588 0c1.011 0 1.831.819 1.831 1.833 0 1.012-.82 1.831-1.831 1.831-1.013 0-1.833-.819-1.833-1.831 0-1.014.82-1.833 1.833-1.833zm3.792 15.762c-5.354 0-9.693-4.34-9.693-9.695 0 0 4.854 2.095 9.901 2.095 5.159 0 9.486-2.095 9.486-2.095.001 5.355-4.339 9.695-9.694 9.695z"/></svg>

<?xml version="1.0" encoding="utf-8"?>
<!-- Generator: Adobe Illustrator 17.0.2, SVG Export Plug-In . SVG Version: 6.00 Build 0)  -->
<!DOCTYPE svg PUBLIC "-//W3C//DTD SVG 1.1//EN" "http://www.w3.org/Graphics/SVG/1.1/DTD/svg11.dtd">
<svg version="1.1" id="Layer_1" xmlns="http://www.w3.org/2000/svg" xmlns:xlink="http://www.w3.org/1999/xlink" x="0px" y="0px"
	 width="40px" height="40px" viewBox="0 0 40 40" enable-background="new 0 0 40 40" xml:space="preserve">
<path fill="#ABABAB" d="M6.777,7.25v19.807l-5.08,5.692c10.346,0,31.178,0,33.384,0c3.072,0,3.216-3.055,3.221-3.208V7.25H6.777z
	 M26.62,12.12c1.012,0,1.832,0.819,1.832,1.833c0,1.012-0.82,1.831-1.832,1.831c-1.013,0-1.833-0.819-1.833-1.831
	C24.787,12.939,25.607,12.12,26.62,12.12z M19.032,12.12c1.011,0,1.831,0.819,1.831,1.833c0,1.012-0.82,1.831-1.831,1.831
	c-1.013,0-1.833-0.819-1.833-1.831C17.199,12.939,18.019,12.12,19.032,12.12z M22.824,27.882c-5.354,0-9.693-4.34-9.693-9.695
	c0,0,4.854,2.095,9.901,2.095c5.159,0,9.486-2.095,9.486-2.095C32.519,23.542,28.179,27.882,22.824,27.882z"/>
</svg>
